X:6793
T:The Forth Bridge
O:england
M:4/4
L:1/8
C:Williamson Blyth
K:D
A, | (3DDD FD ADFD | A,DFA Bdcd | (3A,A,A, CE AECE | edcB AGFE |
(3DDD FD ADFD | A,DFA BcdA | GFGA BcdB | AGFE D3 :||: a | ^gafd AFD=g |
fafd AFDf | gfge cAce | gfed cdef | gafg efde | cdBc ABFA |[1 GFGA BcdB
|
AGFE D3 :|[2 GFGA Bcde | fgef d3 ||


